; generated by PrusaSlicer 2.3.1+linux-x64 on 2021-05-27 at 10:10:40 UTC

; 

; external perimeters extrusion width = 0.45mm
; perimeters extrusion width = 0.45mm
; infill extrusion width = 0.45mm
; solid infill extrusion width = 0.45mm
; top infill extrusion width = 0.40mm
; first layer extrusion width = 0.42mm

M107
M190 S55 ; set bed temperature and wait for it to be reached
M104 S210 ; set temperature
;TYPE:Custom
G28 ; home all axes
G1 Z5 F5000 ; lift nozzle
M109 S210 ; set temperature and wait for it to be reached
G21 ; set units to millimeters
G90 ; use absolute coordinates
M82 ; use absolute distances for extrusion
G92 E0
; Filament gcode
;LAYER_CHANGE
;Z:0.35
;HEIGHT:0.35
G1 Z0.350 F7800.000
G1 E-2.00000 F2400.000
G92 E0
G1 X73.863 Y38.387 F7800.000
G1 E2.00000 F2400.000
;TYPE:Skirt
;WIDTH:0.42
G1 F1800.000
G1 X74.450 Y36.924 E2.07912
G1 X74.887 Y36.244 E2.11969
G1 X75.406 Y35.624 E2.16027
G1 X76.000 Y35.075 E2.20084
G1 X76.664 Y34.603 E2.24172
G1 X77.377 Y34.223 E2.28230
G1 X78.133 Y33.936 E2.32287
G1 X78.919 Y33.748 E2.36344
G1 X79.729 Y33.661 E2.40433
G1 X150.006 Y33.655 E5.93125
G1 X151.212 Y33.772 E5.99206
G1 X152.374 Y34.116 E6.05287
G1 X153.444 Y34.671 E6.11336
G1 X154.394 Y35.423 E6.17417
G1 X155.180 Y36.337 E6.23467
G1 X155.782 Y37.388 E6.29547
G1 X156.173 Y38.535 E6.35628
G1 X156.339 Y39.729 E6.41678
G1 X156.345 Y160.037 E12.45456
G1 X156.138 Y161.607 E12.53399
G1 X155.550 Y163.076 E12.61342
G1 X155.106 Y163.766 E12.65462
G1 X154.577 Y164.394 E12.69581
G1 X153.971 Y164.948 E12.73701
G1 X153.305 Y165.416 E12.77789
G1 X152.578 Y165.798 E12.81909
G1 X151.808 Y166.082 E12.86029
G1 X151.013 Y166.263 E12.90117
G1 X150.196 Y166.342 E12.94237
G1 X79.932 Y166.345 E16.46867
G1 X78.375 Y166.133 E16.54748
G1 X76.924 Y165.550 E16.62598
G1 X76.229 Y165.102 E16.66749
G1 X75.597 Y164.568 E16.70900
G1 X75.040 Y163.957 E16.75050
G1 X74.564 Y163.273 E16.79232
G1 X74.185 Y162.538 E16.83383
G1 X73.904 Y161.760 E16.87534
G1 X73.727 Y160.952 E16.91685
G1 X73.656 Y160.122 E16.95867
G1 X73.655 Y39.956 E22.98927
G1 X73.856 Y38.447 E23.06569
G1 E21.06569 F2400.000
G92 E0
G1 X81.100 Y41.100 F7800.000
G1 E2.00000 F2400.000
;TYPE:Perimeter
G1 F1800.000
G1 X148.900 Y41.100 E5.40263
G1 X148.900 Y158.900 E11.31455
G1 X81.100 Y158.900 E14.71718
G1 X81.100 Y41.160 E20.62609
G1 X80.755 Y40.755 F7800.000
G1 F1800.000
G1 X149.245 Y40.755 E24.06333
G1 X149.245 Y159.245 E30.00987
G1 X80.755 Y159.245 E33.44712
G1 X80.755 Y40.815 E39.39065
G1 X80.410 Y40.410 F7800.000
;TYPE:External perimeter
G1 F1800.000
G1 X149.590 Y40.410 E42.86251
G1 X149.590 Y159.590 E48.84367
G1 X80.410 Y159.590 E52.31553
G1 X80.410 Y40.470 E58.29367
G1 X80.786 Y40.547 F7800.000
G1 E56.29367 F2400.000
G92 E0
G1 X148.098 Y41.203 F7800.000
G1 E2.00000 F2400.000
;TYPE:Solid infill
;WIDTH:0.420746
G1 F1800.000
G1 X148.642 Y41.747 E2.03866
G1 X148.642 Y42.236 E2.06325
G1 X147.764 Y41.358 E2.12564
G1 X147.276 Y41.358 E2.15022
G1 X148.642 Y42.724 E2.24738
G1 X148.642 Y43.213 E2.27197
G1 X146.787 Y41.358 E2.40389
G1 X146.298 Y41.358 E2.42848
G1 X148.642 Y43.702 E2.59517
G1 X148.642 Y44.191 E2.61975
G1 X145.809 Y41.358 E2.82121
G1 X145.320 Y41.358 E2.84580
G1 X148.642 Y44.680 E3.08202
G1 X148.642 Y45.168 E3.10661
G1 X144.832 Y41.358 E3.37760
G1 X144.343 Y41.358 E3.40218
G1 X148.642 Y45.657 E3.70795
G1 X148.642 Y46.146 E3.73253
G1 X143.854 Y41.358 E4.07306
G1 X143.365 Y41.358 E4.09764
G1 X148.642 Y46.635 E4.47294
G1 X148.642 Y47.124 E4.49752
G1 X142.876 Y41.358 E4.90758
G1 X142.388 Y41.358 E4.93217
G1 X148.642 Y47.612 E5.37699
G1 X148.642 Y48.101 E5.40158
G1 X141.899 Y41.358 E5.88117
G1 X141.410 Y41.358 E5.90576
G1 X148.642 Y48.590 E6.42012
G1 X148.642 Y49.079 E6.44471
G1 X140.921 Y41.358 E6.99384
G1 X140.432 Y41.358 E7.01842
G1 X148.642 Y49.568 E7.60232
G1 X148.642 Y50.056 E7.62690
G1 X139.944 Y41.358 E8.24556
G1 X139.455 Y41.358 E8.27015
G1 X148.642 Y50.545 E8.92358
G1 X148.642 Y51.034 E8.94816
G1 X138.966 Y41.358 E9.63636
G1 X138.477 Y41.358 E9.66095
G1 X148.642 Y51.523 E10.38391
G1 X148.642 Y52.012 E10.40849
G1 X137.988 Y41.358 E11.16623
G1 X137.500 Y41.358 E11.19081
G1 X148.642 Y52.500 E11.98331
G1 X148.642 Y52.989 E12.00789
G1 X137.011 Y41.358 E12.83516
G1 X136.522 Y41.358 E12.85974
G1 X148.642 Y53.478 E13.72178
G1 X148.642 Y53.967 E13.74636
G1 X136.033 Y41.358 E14.64316
G1 X135.544 Y41.358 E14.66774
G1 X148.642 Y54.456 E15.59931
G1 X148.642 Y54.944 E15.62390
G1 X135.056 Y41.358 E16.59023
G1 X134.567 Y41.358 E16.61481
G1 X148.642 Y55.433 E17.61591
G1 X148.642 Y55.922 E17.64050
G1 X134.078 Y41.358 E18.67637
G1 X133.589 Y41.358 E18.70095
G1 X148.642 Y56.411 E19.77159
G1 X148.642 Y56.900 E19.79617
G1 X133.100 Y41.358 E20.90157
G1 X132.612 Y41.358 E20.92616
G1 X148.642 Y57.388 E22.06633
G1 X148.642 Y57.877 E22.09091
G1 X132.123 Y41.358 E23.26585
G1 X131.634 Y41.358 E23.29043
G1 X148.642 Y58.366 E24.50013
G1 X148.642 Y58.855 E24.52472
G1 X131.145 Y41.358 E25.76919
G1 X130.656 Y41.358 E25.79377
G1 X148.642 Y59.344 E27.07301
G1 X148.642 Y59.832 E27.09759
G1 X130.168 Y41.358 E28.41160
G1 X129.679 Y41.358 E28.43618
G1 X148.642 Y60.321 E29.78495
G1 X148.642 Y60.810 E29.80954
G1 X129.190 Y41.358 E31.19308
G1 X128.701 Y41.358 E31.21766
G1 X148.642 Y61.299 E32.63596
G1 X148.642 Y61.788 E32.66055
G1 X128.212 Y41.358 E34.11362
G1 X127.724 Y41.358 E34.13821
G1 X148.642 Y62.276 E35.62604
G1 X148.642 Y62.765 E35.65063
G1 X127.235 Y41.358 E37.17324
G1 X126.746 Y41.358 E37.19782
G1 X148.642 Y63.254 E38.75519
G1 X148.642 Y63.743 E38.77978
G1 X126.257 Y41.358 E40.37192
G1 X125.768 Y41.358 E40.39650
G1 X148.642 Y64.232 E42.02341
G1 X148.642 Y64.720 E42.04799
G1 X125.279 Y41.358 E43.70967
G1 X124.791 Y41.358 E43.73425
G1 X148.642 Y65.209 E45.43069
G1 X148.642 Y65.698 E45.45528
G1 X124.302 Y41.358 E47.18649
G1 X123.813 Y41.358 E47.21107
G1 X148.642 Y66.187 E48.97705
G1 X148.642 Y66.676 E49.00163
G1 X123.324 Y41.358 E50.80237
G1 X122.835 Y41.358 E50.82696
G1 X148.642 Y67.165 E52.66247
G1 X148.642 Y67.653 E52.68705
G1 X122.347 Y41.358 E54.55733
G1 X121.858 Y41.358 E54.58191
G1 X148.642 Y68.142 E56.48695
G1 X148.642 Y68.631 E56.51154
G1 X121.369 Y41.358 E58.45135
G1 X120.880 Y41.358 E58.47593
G1 X148.642 Y69.120 E60.45051
G1 X148.642 Y69.609 E60.47509
G1 X120.391 Y41.358 E62.48444
G1 X119.903 Y41.358 E62.50902
G1 X148.642 Y70.097 E64.55314
G1 X148.642 Y70.586 E64.57772
G1 X119.414 Y41.358 E66.65660
G1 X118.925 Y41.358 E66.68118
G1 X148.642 Y71.075 E68.79483
G1 X148.642 Y71.564 E68.81941
G1 X118.436 Y41.358 E70.96782
G1 X117.947 Y41.358 E70.99241
G1 X148.642 Y72.053 E73.17559
G1 X148.642 Y72.541 E73.20017
G1 X117.459 Y41.358 E75.41812
G1 X116.970 Y41.358 E75.44270
G1 X148.642 Y73.030 E77.69542
G1 X148.642 Y73.519 E77.72000
G1 X116.481 Y41.358 E80.00748
G1 X115.992 Y41.358 E80.03207
G1 X148.642 Y74.008 E82.35431
G1 X148.642 Y74.497 E82.37890
G1 X115.503 Y41.358 E84.73591
G1 X115.015 Y41.358 E84.76050
G1 X148.642 Y74.985 E87.15228
G1 X148.642 Y75.474 E87.17686
G1 X114.526 Y41.358 E89.60341
G1 X114.037 Y41.358 E89.62800
G1 X148.642 Y75.963 E92.08931
G1 X148.642 Y76.452 E92.11390
G1 X113.548 Y41.358 E94.60998
G1 X113.059 Y41.358 E94.63456
G1 X148.642 Y76.941 E97.16541
G1 X148.642 Y77.429 E97.19000
G1 X112.571 Y41.358 E99.75561
G1 X112.082 Y41.358 E99.78020
G1 X148.642 Y77.918 E102.38058
G1 X148.642 Y78.407 E102.40517
G1 X111.593 Y41.358 E105.04032
G1 X111.104 Y41.358 E105.06490
G1 X148.642 Y78.896 E107.73482
G1 X148.642 Y79.385 E107.75940
G1 X110.615 Y41.358 E110.46409
G1 X110.127 Y41.358 E110.48867
G1 X148.642 Y79.873 E113.22813
G1 X148.642 Y80.362 E113.25271
G1 X109.638 Y41.358 E116.02693
G1 X109.149 Y41.358 E116.05151
G1 X148.642 Y80.851 E118.86050
G1 X148.642 Y81.340 E118.88508
G1 X108.660 Y41.358 E121.72884
G1 X108.171 Y41.358 E121.75342
G1 X148.642 Y81.829 E124.63194
G1 X148.642 Y82.317 E124.65652
G1 X107.683 Y41.358 E127.56981
G1 X107.194 Y41.358 E127.59440
G1 X148.642 Y82.806 E130.54245
G1 X148.642 Y83.295 E130.56703
G1 X106.705 Y41.358 E133.54985
G1 X106.216 Y41.358 E133.57444
G1 X148.642 Y83.784 E136.59203
G1 X148.642 Y84.273 E136.61661
G1 X105.727 Y41.358 E139.66897
G1 X105.239 Y41.358 E139.69355
G1 X148.642 Y84.761 E142.78067
G1 X148.642 Y85.250 E142.80526
G1 X104.750 Y41.358 E145.92715
G1 X104.261 Y41.358 E145.95173
G1 X148.642 Y85.739 E149.10839
G1 X148.642 Y86.228 E149.13297
G1 X103.772 Y41.358 E152.32439
G1 X103.283 Y41.358 E152.34898
G1 X148.642 Y86.717 E155.57517
G1 X148.642 Y87.205 E155.59975
G1 X102.795 Y41.358 E158.86071
G1 X102.306 Y41.358 E158.88529
G1 X148.642 Y87.694 E162.18102
G1 X148.642 Y88.183 E162.20560
G1 X101.817 Y41.358 E165.53609
G1 X101.328 Y41.358 E165.56068
G1 X148.642 Y88.672 E168.92594
G1 X148.642 Y89.161 E168.95052
G1 X100.839 Y41.358 E172.35055
G1 X100.351 Y41.358 E172.37513
G1 X148.642 Y89.649 E175.80992
G1 X148.642 Y90.138 E175.83451
G1 X99.862 Y41.358 E179.30407
G1 X99.373 Y41.358 E179.32865
G1 X148.642 Y90.627 E182.83298
G1 X148.642 Y91.116 E182.85756
G1 X98.884 Y41.358 E186.39666
G1 X98.395 Y41.358 E186.42124
G1 X148.642 Y91.605 E189.99510
G1 X148.642 Y92.093 E190.01968
G1 X97.907 Y41.358 E193.62831
G1 X97.418 Y41.358 E193.65290
G1 X148.642 Y92.582 E197.29629
G1 X148.642 Y93.071 E197.32087
G1 X96.929 Y41.358 E200.99904
G1 X96.440 Y41.358 E201.02362
G1 X148.642 Y93.560 E204.73655
G1 X148.642 Y94.049 E204.76113
G1 X95.951 Y41.358 E208.50883
G1 X95.463 Y41.358 E208.53341
G1 X148.642 Y94.537 E212.31588
G1 X148.642 Y95.026 E212.34046
G1 X94.974 Y41.358 E216.15769
G1 X94.485 Y41.358 E216.18227
G1 X148.642 Y95.515 E220.03427
G1 X148.642 Y96.004 E220.05885
G1 X93.996 Y41.358 E223.94562
G1 X93.507 Y41.358 E223.97020
G1 X148.642 Y96.493 E227.89173
G1 X148.642 Y96.981 E227.91632
G1 X93.019 Y41.358 E231.87261
G1 X92.530 Y41.358 E231.89720
G1 X148.642 Y97.470 E235.88826
G1 X148.642 Y97.959 E235.91285
G1 X92.041 Y41.358 E239.93868
G1 X91.552 Y41.358 E239.96326
G1 X148.642 Y98.448 E244.02386
G1 X148.642 Y98.937 E244.04845
G1 X91.063 Y41.358 E248.14381
G1 X90.575 Y41.358 E248.16840
G1 X148.642 Y99.425 E252.29853
G1 X148.642 Y99.914 E252.32311
G1 X90.086 Y41.358 E256.48801
G1 X89.597 Y41.358 E256.51260
G1 X148.642 Y100.403 E260.71226
G1 X148.642 Y100.892 E260.73685
G1 X89.108 Y41.358 E264.97128
G1 X88.619 Y41.358 E264.99587
G1 X148.642 Y101.381 E269.26507
G1 X148.642 Y101.869 E269.28965
G1 X88.131 Y41.358 E273.59362
G1 X87.642 Y41.358 E273.61820
G1 X148.642 Y102.358 E277.95694
G1 X148.642 Y102.847 E277.98152
G1 X87.153 Y41.358 E282.35503
G1 X86.664 Y41.358 E282.37961
G1 X148.642 Y103.336 E286.78788
G1 X148.642 Y103.825 E286.81246
G1 X86.175 Y41.358 E291.25550
G1 X85.687 Y41.358 E291.28008
G1 X148.642 Y104.313 E295.75789
G1 X148.642 Y104.802 E295.78247
G1 X85.198 Y41.358 E300.29504
G1 X84.709 Y41.358 E300.31962
G1 X148.642 Y105.291 E304.86696
G1 X148.642 Y105.780 E304.89155
G1 X84.220 Y41.358 E309.47365
G1 X83.731 Y41.358 E309.49823
G1 X148.642 Y106.269 E314.11511
G1 X148.642 Y106.757 E314.13969
G1 X83.243 Y41.358 E318.79133
G1 X82.754 Y41.358 E318.81591
G1 X148.642 Y107.246 E323.50232
G1 X148.642 Y107.735 E323.52690
G1 X82.265 Y41.358 E328.24807
G1 X81.776 Y41.358 E328.27266
G1 X148.642 Y108.224 E333.02860
G1 X148.642 Y108.713 E333.05318
G1 X81.358 Y41.430 E337.83883
G1 X81.358 Y41.918 E337.86342
G1 X148.642 Y109.201 E342.64907
G1 X148.642 Y109.690 E342.67365
G1 X81.358 Y42.407 E347.45930
G1 X81.358 Y42.896 E347.48388
G1 X148.642 Y110.179 E352.26953
G1 X148.642 Y110.668 E352.29412
G1 X81.358 Y43.385 E357.07977
G1 X81.358 Y43.874 E357.10435
G1 X148.642 Y111.157 E361.89000
G1 X148.642 Y111.645 E361.91459
G1 X81.358 Y44.362 E366.70024
G1 X81.358 Y44.851 E366.72482
G1 X148.642 Y112.134 E371.51047
G1 X148.642 Y112.623 E371.53506
G1 X81.358 Y45.340 E376.32071
G1 X81.358 Y45.829 E376.34529
G1 X148.642 Y113.112 E381.13094
G1 X148.642 Y113.601 E381.15552
G1 X81.358 Y46.318 E385.94118
G1 X81.358 Y46.806 E385.96576
G1 X148.642 Y114.089 E390.75141
G1 X148.642 Y114.578 E390.77599
G1 X81.358 Y47.295 E395.56164
G1 X81.358 Y47.784 E395.58623
G1 X148.642 Y115.067 E400.37188
G1 X148.642 Y115.556 E400.39646
G1 X81.358 Y48.273 E405.18211
G1 X81.358 Y48.762 E405.20670
G1 X148.642 Y116.045 E409.99235
G1 X148.642 Y116.533 E410.01693
G1 X81.358 Y49.250 E414.80258
G1 X81.358 Y49.739 E414.82717
G1 X148.642 Y117.022 E419.61282
G1 X148.642 Y117.511 E419.63740
G1 X81.358 Y50.228 E424.42305
G1 X81.358 Y50.717 E424.44763
G1 X148.642 Y118.000 E429.23328
G1 X148.642 Y118.489 E429.25787
G1 X81.358 Y51.206 E434.04352
G1 X81.358 Y51.694 E434.06810
G1 X148.642 Y118.977 E438.85375
G1 X148.642 Y119.466 E438.87834
G1 X81.358 Y52.183 E443.66399
G1 X81.358 Y52.672 E443.68857
G1 X148.642 Y119.955 E448.47422
G1 X148.642 Y120.444 E448.49881
G1 X81.358 Y53.161 E453.28446
G1 X81.358 Y53.650 E453.30904
G1 X148.642 Y120.933 E458.09469
G1 X148.642 Y121.421 E458.11928
G1 X81.358 Y54.138 E462.90493
G1 X81.358 Y54.627 E462.92951
G1 X148.642 Y121.910 E467.71516
G1 X148.642 Y122.399 E467.73974
G1 X81.358 Y55.116 E472.52539
G1 X81.358 Y55.605 E472.54998
G1 X148.642 Y122.888 E477.33563
G1 X148.642 Y123.377 E477.36021
G1 X81.358 Y56.094 E482.14586
G1 X81.358 Y56.582 E482.17045
G1 X148.642 Y123.866 E486.95610
G1 X148.642 Y124.354 E486.98068
G1 X81.358 Y57.071 E491.76633
G1 X81.358 Y57.560 E491.79092
G1 X148.642 Y124.843 E496.57657
G1 X148.642 Y125.332 E496.60115
G1 X81.358 Y58.049 E501.38680
G1 X81.358 Y58.538 E501.41139
G1 X148.642 Y125.821 E506.19704
G1 X148.642 Y126.310 E506.22162
G1 X81.358 Y59.026 E511.00727
G1 X81.358 Y59.515 E511.03185
G1 X148.642 Y126.798 E515.81750
G1 X148.642 Y127.287 E515.84209
G1 X81.358 Y60.004 E520.62774
G1 X81.358 Y60.493 E520.65232
G1 X148.642 Y127.776 E525.43797
G1 X148.642 Y128.265 E525.46256
G1 X81.358 Y60.982 E530.24821
G1 X81.358 Y61.470 E530.27279
G1 X148.642 Y128.754 E535.05844
G1 X148.642 Y129.242 E535.08303
G1 X81.358 Y61.959 E539.86868
G1 X81.358 Y62.448 E539.89326
G1 X148.642 Y129.731 E544.67891
G1 X148.642 Y130.220 E544.70350
G1 X81.358 Y62.937 E549.48915
G1 X81.358 Y63.426 E549.51373
G1 X148.642 Y130.709 E554.29938
G1 X148.642 Y131.198 E554.32396
G1 X81.358 Y63.914 E559.10961
G1 X81.358 Y64.403 E559.13420
G1 X148.642 Y131.686 E563.91985
G1 X148.642 Y132.175 E563.94443
G1 X81.358 Y64.892 E568.73008
G1 X81.358 Y65.381 E568.75467
G1 X148.642 Y132.664 E573.54032
G1 X148.642 Y133.153 E573.56490
G1 X81.358 Y65.870 E578.35055
G1 X81.358 Y66.358 E578.37514
G1 X148.642 Y133.642 E583.16079
G1 X148.642 Y134.130 E583.18537
G1 X81.358 Y66.847 E587.97102
G1 X81.358 Y67.336 E587.99560
G1 X148.642 Y134.619 E592.78126
G1 X148.642 Y135.108 E592.80584
G1 X81.358 Y67.825 E597.59149
G1 X81.358 Y68.314 E597.61607
G1 X148.642 Y135.597 E602.40172
G1 X148.642 Y136.086 E602.42631
G1 X81.358 Y68.802 E607.21196
G1 X81.358 Y69.291 E607.23654
G1 X148.642 Y136.574 E612.02219
G1 X148.642 Y137.063 E612.04678
G1 X81.358 Y69.780 E616.83243
G1 X81.358 Y70.269 E616.85701
G1 X148.642 Y137.552 E621.64266
G1 X148.642 Y138.041 E621.66725
G1 X81.358 Y70.758 E626.45290
G1 X81.358 Y71.246 E626.47748
G1 X148.642 Y138.530 E631.26313
G1 X148.642 Y139.018 E631.28771
G1 X81.358 Y71.735 E636.07337
G1 X81.358 Y72.224 E636.09795
G1 X148.642 Y139.507 E640.88360
G1 X148.642 Y139.996 E640.90818
G1 X81.358 Y72.713 E645.69383
G1 X81.358 Y73.202 E645.71842
G1 X148.642 Y140.485 E650.50407
G1 X148.642 Y140.974 E650.52865
G1 X81.358 Y73.690 E655.31430
G1 X81.358 Y74.179 E655.33889
G1 X148.642 Y141.462 E660.12454
G1 X148.642 Y141.951 E660.14912
G1 X81.358 Y74.668 E664.93477
G1 X81.358 Y75.157 E664.95936
G1 X148.642 Y142.440 E669.74501
G1 X148.642 Y142.929 E669.76959
G1 X81.358 Y75.646 E674.55524
G1 X81.358 Y76.134 E674.57982
G1 X148.642 Y143.418 E679.36547
G1 X148.642 Y143.906 E679.39006
G1 X81.358 Y76.623 E684.17571
G1 X81.358 Y77.112 E684.20029
G1 X148.642 Y144.395 E688.98594
G1 X148.642 Y144.884 E689.01053
G1 X81.358 Y77.601 E693.79618
G1 X81.358 Y78.090 E693.82076
G1 X148.642 Y145.373 E698.60641
G1 X148.642 Y145.862 E698.63100
G1 X81.358 Y78.578 E703.41665
G1 X81.358 Y79.067 E703.44123
G1 X148.642 Y146.350 E708.22688
G1 X148.642 Y146.839 E708.25147
G1 X81.358 Y79.556 E713.03712
G1 X81.358 Y80.045 E713.06170
